X:1
T:Times is Hard
M:6/8
L:1/8
K:Eb
 G2 G A2 G| G F2 C3| FFF GGF| B,6| EDC EDC| D2 E F2 F| =E/2E/2 =B,C G2 _G|\
 F6| G2 G A2 G| G2 F C2 C| D2 BF ^F2| G3- G2 G| A2 G c2 B| B A2 C2 C/2C/2|\
 DDA G/2 G3/2 F| E6|

